X:241
T: AUF AUF WER DEUTSCHE FREIHEIT LIEBET
N: F0418
O: Europa, Mitteleuropa, Deutschland
R: Vaterlands -, Heimat - Lied, nationalistisch, Krieg
M: 4/4
L: 1/16
K: D
A,2 | D6D,2D,3E,F,3^G, | A,3^G,A,4z2
A,2F,2D,2 | B,6B,2A,6G,2 | F,4z8z2
A,2 | D6B,2^G,3E,F,3G, | A,3^G,A,4z2
A,2A,2C2 | B,6B,2E4^G,4 | A,4z6
A,2A,2A,2 | B,6B,2A,6A,2 | G,4G,4z2
E,2E,2G,2 | F,6A,2A,4G,2F,2 | E,4z6
A,2B,2C2 | D6D2E6G,2 | G,4F,4z2
D2D2D2 | E,6C2A,6G,2 | F,8z3
DC3D | B,4G,4E,4A,4 | D,4z8z2

